X: 1041
T: The Angry Peeler
R:double jig
N:"collected by Fielding"
B:O'Neill's 1041
Z:Transcribed by henrik.norbeck@mailbox.swipnet.se
M:6/8
L:1/8
K:G
(B/c/B)A GED|DED GED|BAB dBG|ABA A3|
(B/c/B)A GED|DED GED|BAB dBG|DEG G2:|
(B/c/B)A Bcd|ege dBG|BAB dBG|FAA A2|
(B/c/B)A Bcd|ege dBG|BAB GED|EGG G2:|


